material/.icons/material/lightbulb-multiple-off-outline.svg

<svg xmlns="http://www.w3.org/2000/svg" viewBox="0 0 24 24"><path d="M22.11 21.46L2.39 1.73 1.11 3l3.03 3.03C3.93 7 4 8.05 4.45 9.04c.34.77.88 1.46 1.55 1.96v2c0 .55.45 1 1 1h.3c-.2-.65-.3-1.32-.3-2 0-.92.19-1.79.5-2.59L9.11 11c-.06.33-.11.66-.11 1 0 1.57.74 3.06 2 4v2c0 .55.45 1 1 1h4c.31 0 .57-.14.75-.36l4.09 4.09 1.27-1.27m-10.88-8.34l1.64 1.64c-.77-.32-1.34-.91-1.64-1.64M15 17h-2v-2.11l2 2V17M9.69 6.5L6.14 2.94c.27-.19.56-.36.86-.5 2.53-1.11 5.5.03 6.6 2.56a6.87 6.87 0 00-3.91 1.5m1.43 1.42C11.94 7.35 12.93 7 14 7c1.57 0 3.06.74 4 2 1.33 1.78 1.28 4.14.07 5.87l-1.45-1.45c.08-.14.15-.28.21-.42.55-1.57-.27-3.28-1.83-3.84-.84-.29-1.71-.19-2.43.21l-1.45-1.45M7.68 15c.32.7.78 1.33 1.32 1.88V17H8c-.55 0-1-.45-1-1v-1h.68M12 20h4v1c0 .55-.45 1-1 1h-2c-.55 0-1-.45-1-1v-1z"/></svg>

<?xml version="1.0" encoding="UTF-8"?><!DOCTYPE svg PUBLIC "-//W3C//DTD SVG 1.1//EN" "http://www.w3.org/Graphics/SVG/1.1/DTD/svg11.dtd"><svg xmlns="http://www.w3.org/2000/svg" xmlns:xlink="http://www.w3.org/1999/xlink" version="1.1" id="mdi-lightbulb-multiple-off-outline" width="24" height="24" viewBox="0 0 24 24"><path d="M22.11 21.46L2.39 1.73L1.11 3L4.14 6.03C3.93 7 4 8.05 4.45 9.04C4.79 9.81 5.33 10.5 6 11V13C6 13.55 6.45 14 7 14H7.3C7.1 13.35 7 12.68 7 12C7 11.08 7.19 10.21 7.5 9.41L9.11 11C9.05 11.33 9 11.66 9 12C9 13.57 9.74 15.06 11 16V18C11 18.55 11.45 19 12 19H16C16.31 19 16.57 18.86 16.75 18.64L20.84 22.73L22.11 21.46M11.23 13.12L12.87 14.76C12.1 14.44 11.53 13.85 11.23 13.12M15 17H13V14.89L15 16.89V17M9.69 6.5L6.14 2.94C6.41 2.75 6.7 2.58 7 2.44C9.53 1.33 12.5 2.47 13.6 5C12.12 5.09 10.77 5.63 9.69 6.5M11.12 7.92C11.94 7.35 12.93 7 14 7C15.57 7 17.06 7.74 18 9C19.33 10.78 19.28 13.14 18.07 14.87L16.62 13.42C16.7 13.28 16.77 13.14 16.83 13C17.38 11.43 16.56 9.72 15 9.16C14.16 8.87 13.29 8.97 12.57 9.37L11.12 7.92M7.68 15C8 15.7 8.46 16.33 9 16.88V17H8C7.45 17 7 16.55 7 16V15H7.68M12 20H16V21C16 21.55 15.55 22 15 22H13C12.45 22 12 21.55 12 21V20Z" /></svg>
